X: 31567
T: Painter's
R: polka
M: 2/4
K: Cmajor
|:GG AB|cE E2|FD DC/D/|EG G2|
GG AB|cE E2|FD DC/D/|EC C2:|
|:EE FA|GE E2|FD DC/D/|EC C2|
EE FA|GE E2|FD DC/D/|EC C2:|

